file/rbk-tv.svg

<svg clip-rule="evenodd" fill-rule="evenodd" stroke-linejoin="round" stroke-miterlimit="1.41421" viewBox="0 0 560 400" xmlns="http://www.w3.org/2000/svg"><g transform="matrix(6.02871 0 0 6.02871 100 151.77)"><path d="m0 0v14.933l14.933-14.933z" fill="#92cfae"/><path d="m1.067 16h14.933v-14.933z" fill="#2a8288"/><path d="m22.586 16h-3.538v-16h5.428c3.824 0 6 1.723 6 5.102v.09c0 3.379-2.307 4.99-5.89 4.99h-2zm19.463-13.18h-6.577l-.022 3.356h2.307c3.558 0 5.672 1.589 5.672 4.789v.09c0 3.132-1.963 4.945-5.779 4.945h-5.65v-16h10.049zm7.666 13.18h-3.715v-15.978h3.715v6.883l5.734-6.905h3.944l-6.49 7.575 6.811 8.425h-4.334l-5.665-7.173zm-12.281-7.273h-1.984v4.52h2.07c1.704 0 2.566-.76 2.566-2.215v-.089c0-1.433-.862-2.216-2.652-2.216zm-13.046-5.974h-1.802v4.9h1.802c1.737 0 2.66-.85 2.66-2.439v-.09c0-1.7-.967-2.371-2.66-2.371z"/></g></svg>

<?xml version="1.0" encoding="UTF-8" standalone="no"?>
<!DOCTYPE svg PUBLIC "-//W3C//DTD SVG 1.1//EN" "http://www.w3.org/Graphics/SVG/1.1/DTD/svg11.dtd">
<svg width="100%" height="100%" viewBox="0 0 560 400" version="1.1" xmlns="http://www.w3.org/2000/svg" xmlns:xlink="http://www.w3.org/1999/xlink" xml:space="preserve" xmlns:serif="http://www.serif.com/" style="fill-rule:evenodd;clip-rule:evenodd;stroke-linejoin:round;stroke-miterlimit:1.41421;">
    <g transform="matrix(6.02871,0,0,6.02871,100,151.77)">
        <g id="Group">
            <path id="Fill-1" d="M0,0L0,14.933L14.933,0L0,0Z" style="fill:rgb(146,207,174);"/>
            <path id="Fill-2" d="M1.067,16L16,16L16,1.067L1.067,16Z" style="fill:rgb(42,130,136);"/>
        </g>
        <path id="Fill-3" d="M22.586,16L19.048,16L19.048,0L24.476,0C28.3,0 30.476,1.723 30.476,5.102L30.476,5.192C30.476,8.571 28.169,10.182 24.586,10.182L22.586,10.182L22.586,16ZM42.049,2.82L35.472,2.82L35.45,6.176L37.757,6.176C41.315,6.176 43.429,7.765 43.429,10.965L43.429,11.055C43.429,14.187 41.466,16 37.65,16L32,16L32,0L42.049,0L42.049,2.82ZM49.715,16L46,16L46,0.022L49.715,0.022L49.715,6.905L55.449,0L59.393,0L52.903,7.575L59.714,16L55.38,16L49.715,8.827L49.715,16ZM37.434,8.727L35.45,8.727L35.45,13.247L37.52,13.247C39.224,13.247 40.086,12.487 40.086,11.032L40.086,10.943C40.086,9.51 39.224,8.727 37.434,8.727ZM24.388,2.753L22.586,2.753L22.586,7.653L24.388,7.653C26.125,7.653 27.048,6.803 27.048,5.214L27.048,5.124C27.048,3.424 26.081,2.753 24.388,2.753Z"/>
    </g>
</svg>
